svg/fluentui-system-icons/ic_fluent_bluetooth_connected_20_filled.svg

<svg width="20" height="20" viewBox="0 0 20 20" fill="none" xmlns="http://www.w3.org/2000/svg">
<path d="M10.2804 2.21969C10.0659 2.00519 9.74327 1.94103 9.46301 2.05711C9.18276 2.1732 9.00002 2.44668 9.00002 2.75002V8.42429L6.22297 6.16794C5.90149 5.90674 5.42914 5.9556 5.16794 6.27708C4.90674 6.59855 4.9556 7.07091 5.27708 7.33211L8.56067 10L5.27708 12.6679C4.9556 12.9291 4.90674 13.4015 5.16794 13.723C5.42914 14.0444 5.90149 14.0933 6.22297 13.8321L9.00002 11.5757V17.25C9.00002 17.5534 9.18276 17.8268 9.46301 17.9429C9.74327 18.059 10.0659 17.9949 10.2804 17.7804L14.2804 13.7804C14.4305 13.6302 14.51 13.4234 14.499 13.2114C14.4881 12.9993 14.3878 12.8018 14.223 12.6679L10.9394 10L14.223 7.33211C14.3878 7.19821 14.4881 7.00072 14.499 6.78866C14.51 6.5766 14.4305 6.36984 14.2804 6.21969L10.2804 2.21969ZM10.5 15.4394V11.5757L12.6317 13.3077L10.5 15.4394ZM12.6317 6.69233L10.5 8.42429V4.56068L12.6317 6.69233ZM4 10C4 10.5523 3.55228 11 3 11C2.44772 11 2 10.5523 2 10C2 9.44772 2.44772 9 3 9C3.55228 9 4 9.44772 4 10ZM17 10C17 10.5523 16.5523 11 16 11C15.4477 11 15 10.5523 15 10C15 9.44772 15.4477 9 16 9C16.5523 9 17 9.44772 17 10Z" fill="#212121"/>
</svg>

<svg xmlns="http://www.w3.org/2000/svg" width="20" height="20"><path d="M10.28 2.22A.75.75 0 0 0 9 2.75v5.674L6.223 6.168a.75.75 0 1 0-.946 1.164L8.561 10l-3.284 2.668a.75.75 0 0 0 .946 1.164L9 11.576v5.674a.75.75 0 0 0 1.28.53l4-4a.75.75 0 0 0-.057-1.112L10.939 10l3.284-2.668a.75.75 0 0 0 .057-1.112l-4-4Zm.22 13.22v-3.864l2.132 1.732-2.132 2.131Zm2.132-8.748L10.5 8.424V4.561l2.132 2.131ZM4 10a1 1 0 1 1-2 0 1 1 0 0 1 2 0Zm13 0a1 1 0 1 1-2 0 1 1 0 0 1 2 0Z"/></svg>
